_plugins/winden/img/logo-dark.svg

<svg height="40" viewBox="0 0 40 40" width="40" xmlns="http://www.w3.org/2000/svg"><path d="m20.0000801 0c11.0456142 0 19.9999199 8.95434156 19.9999199 20 0 11.0456584-8.9543057 20-19.9999199 20-11.04574738 0-20.0000801-8.9543145-20.0000801-20 0-11.04568546 8.95433272-20 20.0000801-20zm0 3.33198499c-9.2055548 0-16.66810846 7.46253851-16.66810846 16.66801501 0 1.0913135.10488031 2.1581313.30511139 3.1909239l.04847512-.1151919c3.55562576 1.4918808 6.67686885 1.975259 9.58216055 1.6570528 2.2168146-.2427997 4.1498433-.8946495 6.6003311-2.0826765l.1506619-.0745799.5828195-.2937076.899809-.448512.606619-.2994653.4360596-.2131758.3964561-.1913374.2897726-.1371331.1224323-.0566376.1356348-.060932c1.3772139-.6032314 2.5137602-.9142289 3.6629049-.9142289 1.3932115 0 2.7342616.5333567 3.734761 1.5340985 2.0455633 2.0455715 2.0455633 5.3619834 0 7.4075549-2.0251076 2.0251157-5.295918 2.0453669-7.3459397.0607534l-.0617456-.0607534 2.593716-2.5937265c.6130935.613096 1.6071598.613096 2.2202533 0 .6130934-.6130959.6130934-1.607006-.0001544-2.2202564-.2990186-.299091-.7025642-.4595874-1.1409505-.4595874-.5329457-.0000174-1.1953531.1768413-2.1051621.5686942l-.1407586.0617059-.1713086.07893-.309607.1472779-.6008398.2924685-.4508035.2222474-1.7537926.8774256-.1556839.0759584c-2.7938165 1.3541721-5.0946153 2.1299866-7.7961243 2.4258732-2.7072186.2965119-5.53684384.0261328-8.56275345-.8922567 2.74208724 5.4456049 8.38266435 9.1812088 14.89575435 9.1812088 9.2054171 0 16.6679483-7.4625611 16.6679483-16.668015 0-.4091313-.0147408-.8148198-.0437203-1.2165635-3.1529502-1.7251904-6.1797604-2.3866005-9.2294792-2.1939926-2.1009072.1326847-4.0730532.6281455-6.4186585 1.5382905l-.3015064.1184454c-.1012042.0402354-.2031234.0812257-.3057961.1229748l-.310318.1275283-.3091928.1296174c-.103852.0439433-.2085037.0886252-.313992.1340496l-.2247784.0982046-1.8507097.8222543-.7304898.3207056-.5981638.2593056-.3470274.1475861-.1973909.0817838-.065047.0262295c-.1165109.0464719-.230919.0911397-.3433667.1339988l-.2223234.0833048c-1.2088644.4448963-2.1919697.6705039-3.1384982.6705039-1.3930083 0-2.73380559-.5332173-3.73476103-1.5339383-2.04556328-2.0455715-2.04556328-5.3621436 0-7.4077151 2.02510763-2.0251157 5.29591803-2.0453669 7.34593973-.0607534l.0617456.0607534-2.593716 2.5937265c-.6130935-.613096-1.6071598-.613096-2.2202533 0-.61309345.6130959-.61309345 1.6071662-.0001544 2.2201077.2993065.2992365.7028895.4597361 1.1412593.4597361.3786917.0000123.8787602-.1045108 1.5408269-.3283024l.1498091-.0517007.1552415-.0556632.1607728-.0596616.1664032-.0636959c.0282086-.0109541.056656-.0220779.0853441-.033372l.1992758-.0801584.2989784-.1259239.3775128-.1626251.8353798-.3655801 2.1284879-.9450513.3468396-.1493262c3.3299796-1.421224 6.0097054-2.1975026 9.0011286-2.3864287 2.8369022-.1791672 5.6597245.2458288 8.4996326 1.3596376-2.3311953-6.39237607-8.4642345-10.95630691-15.6631827-10.95630691z" fill="#fff"/></svg>

<svg xmlns="http://www.w3.org/2000/svg" width="40px" height="40px" viewBox="0 0 40 40" version="1.1">
    <g id="Page-1" stroke="none" stroke-width="1" fill="#fff" fill-rule="evenodd">
        <path d="M20.0000801,0 C31.0456943,0 40,8.95434156 40,20 C40,31.0456584 31.0456943,40 20.0000801,40 C8.95433272,40 0,31.0456855 0,20 C0,8.95431454 8.95433272,0 20.0000801,0 Z M20.0000801,3.33198499 C10.7945253,3.33198499 3.33197164,10.7945235 3.33197164,20 C3.33197164,21.0913135 3.43685195,22.1581313 3.63708303,23.1909239 L3.68555815,23.075732 C7.24118391,24.5676128 10.362427,25.050991 13.2677187,24.7327848 C15.4845333,24.4899851 17.417562,23.8381353 19.8680498,22.6501083 L20.0187117,22.5755284 L20.6015312,22.2818208 L21.5013402,21.8333088 L22.1079592,21.5338435 L22.5440188,21.3206677 L22.9404749,21.1293303 L23.2302475,20.9921972 L23.3526798,20.9355596 L23.4883146,20.8746276 C24.8655285,20.2713962 26.0020748,19.9603987 27.1512195,19.9603987 C28.544431,19.9603987 29.8854811,20.4937554 30.8859805,21.4944972 C32.9315438,23.5400687 32.9315438,26.8564806 30.8859805,28.9020521 C28.8608729,30.9271678 25.5900625,30.947419 23.5400408,28.9628055 L23.4782952,28.9020521 L26.0720112,26.3083256 C26.6851047,26.9214216 27.679171,26.9214216 28.2922645,26.3083256 C28.9053579,25.6952297 28.9053579,24.7013196 28.2921101,24.0880692 C27.9930915,23.7889782 27.5895459,23.6284818 27.1511596,23.6284818 C26.6182139,23.6284644 25.9558065,23.8053231 25.0459975,24.197176 L24.9052389,24.2588819 L24.7339303,24.3378119 L24.4243233,24.4850898 L23.8234835,24.7775583 L23.37268,24.9998057 L21.6188874,25.8772313 L21.4632035,25.9531897 C18.669387,27.3073618 16.3685882,28.0831763 13.6670792,28.3790629 C10.9598606,28.6755748 8.13023536,28.4051957 5.10432575,27.4868062 C7.84641299,32.9324111 13.4869901,36.668015 20.0000801,36.668015 C29.2054972,36.668015 36.6680284,29.2054539 36.6680284,20 C36.6680284,19.5908687 36.6532876,19.1851802 36.6243081,18.7834365 C33.4713579,17.0582461 30.4445477,16.396836 27.3948289,16.5894439 C25.2939217,16.7221286 23.3217757,17.2175894 20.9761704,18.1277344 L20.674664,18.2461798 C20.5734598,18.2864152 20.4715406,18.3274055 20.3688679,18.3691546 L20.0585499,18.4966829 L20.0585499,18.4966829 L19.7493571,18.6263003 C19.6455051,18.6702436 19.5408534,18.7149255 19.4353651,18.7603499 L19.2105867,18.8585545 L17.359877,19.6808088 L16.6293872,20.0015144 L16.0312234,20.26082 L15.684196,20.4084061 L15.4868051,20.4901899 L15.4217581,20.5164194 C15.3052472,20.5628913 15.1908391,20.6075591 15.0783914,20.6504182 L14.856068,20.733723 C13.6472036,21.1786193 12.6640983,21.4042269 11.7175698,21.4042269 C10.3245615,21.4042269 8.98376421,20.8710096 7.98280877,19.8702886 C5.93724549,17.8247171 5.93724549,14.508145 7.98280877,12.4625735 C10.0079164,10.4374578 13.2787268,10.4172066 15.3287485,12.4018201 L15.3904941,12.4625735 L12.7967781,15.0563 C12.1836846,14.443204 11.1896183,14.443204 10.5765248,15.0563 C9.96343135,15.6693959 9.96343135,16.6634662 10.5763704,17.2764077 C10.8756769,17.5756442 11.2792599,17.7361438 11.7176297,17.7361438 C12.0963214,17.7361561 12.5963899,17.631633 13.2584566,17.4078414 L13.4082657,17.3561407 L13.5635072,17.3004775 L13.72428,17.2408159 L13.8906832,17.17712 C13.9188918,17.1661659 13.9473392,17.1550421 13.9760273,17.143748 L14.1753031,17.0635896 L14.4742815,16.9376657 L14.8517943,16.7750406 L15.6871741,16.4094605 L17.815662,15.4644092 L18.1625016,15.315083 C21.4924812,13.893859 24.172207,13.1175804 27.1636302,12.9286543 C30.0005324,12.7494871 32.8233547,13.1744831 35.6632628,14.2882919 C33.3320675,7.89591583 27.1990283,3.33198499 20.0000801,3.33198499 Z" id="Shape" fill="#fff" fill-rule="nonzero" />
    </g>
</svg>
